build/images/SVG/1/down.svg

<!-- Generated by IcoMoon.io -->
<svg version="1.1" xmlns="http://www.w3.org/2000/svg" width="32" height="32" viewBox="0 0 32 32">
<title>down</title>
<path fill="#ee6427" d="M27.314 4.686c-3.022-3.022-7.040-4.686-11.314-4.686s-8.292 1.664-11.314 4.686-4.686 7.040-4.686 11.314c0 4.274 1.664 8.292 4.686 11.314s7.040 4.686 11.314 4.686c4.274 0 8.292-1.664 11.314-4.686s4.686-7.040 4.686-11.314c0-4.274-1.664-8.292-4.686-11.314zM16 31.241c-8.404 0-15.241-6.837-15.241-15.241s6.837-15.242 15.241-15.242c8.404 0 15.242 6.837 15.242 15.242s-6.837 15.241-15.242 15.241z"></path>
<path fill="#ee6427" d="M11.816 11.589c0 0.847-0.687 1.534-1.534 1.534s-1.534-0.687-1.534-1.534c0-0.847 0.687-1.534 1.534-1.534s1.534 0.687 1.534 1.534z"></path>
<path fill="#ee6427" d="M23.253 11.589c0 0.847-0.687 1.534-1.534 1.534s-1.534-0.687-1.534-1.534c0-0.847 0.687-1.534 1.534-1.534s1.534 0.687 1.534 1.534z"></path>
<path fill="#ee6427" d="M9.086 24.127l-0.18-0.737 14.008-3.413 0.18 0.737-14.008 3.413z"></path>
</svg>

<svg xmlns="http://www.w3.org/2000/svg" width="32" height="32" viewBox="0 0 32 32"><title>down</title><path fill="#ee6427" d="M27.314 4.686C24.292 1.664 20.274 0 16 0S7.708 1.664 4.686 4.686 0 11.726 0 16s1.664 8.292 4.686 11.314S11.726 32 16 32s8.292-1.664 11.314-4.686S32 20.274 32 16s-1.664-8.292-4.686-11.314zM16 31.241C7.596 31.241.759 24.404.759 16S7.596.758 16 .758 31.242 7.595 31.242 16 24.405 31.241 16 31.241z"/><path fill="#ee6427" d="M11.816 11.589a1.534 1.534 0 1 1-3.069 0 1.534 1.534 0 0 1 3.069 0zm11.437 0a1.534 1.534 0 1 1-3.069 0 1.534 1.534 0 0 1 3.069 0zM9.086 24.127l-.18-.737 14.008-3.413.18.737-14.008 3.413z"/></svg>
